X:1
T: The Fogwatt Burns Supper
C:William Macpherson
R:Reel
Q: 232
K:A
M:4/4
L:1/8
|:"$"AB|c2 A2 e2 A2|a2 f2 d2 AB|cA eA fe cA|B2 E2 E2 AB|
c2 A2 e2 A2|fd fa af ed|ca fd ce dB|1c2 A2 A2:|2c2 A2 A2 cd|
|:e4 a2 e2|AB cd e2 ae|f2 dB e2 cA|Be ^df ((3gfe) ((3=dcB)|
A2 cA e2 cA|fa df e2 cA|Bc de fa ed|1c2 AA A2 cd:|2c2 A2 A2"Fine"||ED|
|:CE AE FD AF|GB ed cA ED|CE AE DF BA|1Ge dB A2 EG:|2Ge dB A2|
|:cd|eA aA fA af|ea ec Ac ec|Bc ^de fd Bd|eB f^d e2 a2|
AA cA EA cA|DD FA df dB|e2 ae fd BG|A2 a2"D.S." A2:|
